!!!COM: Music21
!!!OTL: waltz_Rozsa
!!!OMV: waltz_Rozsa
**kern
*clefG2
*k[b-]
*d:
*M3/4
=1
8b-
8a
8f
=
4d
8dL
8fJ
8aL
8ddJ
=
4ff
8ffL
8ddJ
8aL
8dJ
=
4b-
8gL
8aJ
8b-L
8ccJ
=
8aL
8b-J
8aL
8gJ
8fL
8eJ
=
4d
8dL
8fJ
8aL
8ddJ
=
4ff
8ffL
8ddJ
8aL
8dJ
!!linebreak:original
=
4b-
8gL
8aJ
8b-L
8ccJ
=
4.a
8b-
8aL
8fJ
=||
*M3/4
8b-
8a
8f
=
4d
8dL
8fJ
8aL
8ddJ
=
4ff
8ffL
8ddJ
8aL
8dJ
=
4b-
8gL
8aJ
8b-L
8ccJ
=
8aL
8b-J
8aL
8gJ
8fL
8eJ
!!linebreak:original
=
4d
8dL
8fJ
8aL
8ddJ
=
4ff
8ffL
8ddJ
8aL
8dJ
=
4b-
8gL
8aJ
8b-L
8ccJ
=
2a
4a
=||
4b-
8ddL
8eeJ
4ff
=
4a
8ddL
8eeJ
4ff
=
8eeL
8ffJ
4gg
8ffL
8eeJ
=
4ff
4ee
4dd
=
4b-
8ddL
8eeJ
4ff
!!linebreak:original
=
4a
8ddL
8eeJ
4ff
=
8eeL
8ffJ
4gg
8ffL
8eeJ
=
4.dd
8cc
8b-L
8aJ
=
8b-L
8ddJ
8eeL
8ffJ
8eeL
8ddJ
=
8aL
8ddJ
8eeL
8ffJ
8eeL
8ddJ
=
8eeL
8ffJ
4gg
8ffL
8eeJ
=
4ff
4ee
4dd
=
8b-L
8ddJ
8eeL
8ffJ
8eeL
8ddJ
!!linebreak:original
=
8aL
8ddJ
8eeL
8ffJ
8eeL
8ddJ
=
8eeL
8ffJ
4gg
8ffL
8eeJ
=
4.dd
4.ryy
=||
*-
